flaticon/transportation/car-4.svg

<svg xmlns="http://www.w3.org/2000/svg" width="32" height="32" viewBox="0 0 24 24">
    <path d="M 22.652344 12.441406 C 22.636719 10.121094 20.875 8.234375 18.710938 8.234375 L 17.40625 8.234375 L 14.332031 3.675781 L 13.484375 4.25 L 16.171875 8.234375 L 6.871094 8.234375 L 7.625 6.957031 L 6.746094 6.4375 L 5.683594 8.234375 L 5.289062 8.234375 C 3.125 8.234375 1.363281 10.121094 1.347656 12.441406 C 0.558594 12.753906 0 13.523438 0 14.417969 C 0 15.589844 0.953125 16.542969 2.125 16.542969 L 2.4375 16.542969 C 2.421875 16.683594 2.410156 16.820312 2.410156 16.964844 C 2.410156 18.816406 3.917969 20.324219 5.769531 20.324219 C 7.621094 20.324219 9.128906 18.816406 9.128906 16.964844 C 9.128906 16.820312 9.117188 16.683594 9.101562 16.542969 L 14.898438 16.542969 C 14.878906 16.683594 14.871094 16.820312 14.871094 16.964844 C 14.871094 18.816406 16.378906 20.324219 18.230469 20.324219 C 20.082031 20.324219 21.589844 18.816406 21.589844 16.964844 C 21.589844 16.820312 21.578125 16.683594 21.5625 16.542969 L 21.875 16.542969 C 23.046875 16.542969 24 15.589844 24 14.417969 C 24 13.523438 23.441406 12.753906 22.652344 12.441406 Z M 5.289062 9.257812 L 18.710938 9.257812 C 19.546875 9.257812 20.296875 9.644531 20.832031 10.265625 L 18.652344 10.265625 L 18.652344 11.285156 L 21.425781 11.285156 C 21.539062 11.601562 21.609375 11.9375 21.628906 12.292969 L 2.371094 12.292969 C 2.457031 10.601562 3.734375 9.257812 5.289062 9.257812 Z M 5.769531 19.300781 C 4.480469 19.300781 3.433594 18.253906 3.433594 16.964844 C 3.433594 15.675781 4.480469 14.628906 5.769531 14.628906 C 7.058594 14.628906 8.105469 15.675781 8.105469 16.964844 C 8.105469 18.253906 7.058594 19.300781 5.769531 19.300781 Z M 18.230469 19.300781 C 16.941406 19.300781 15.890625 18.253906 15.890625 16.964844 C 15.890625 15.675781 16.941406 14.628906 18.230469 14.628906 C 19.519531 14.628906 20.566406 15.675781 20.566406 16.964844 C 20.566406 18.253906 19.519531 19.300781 18.230469 19.300781 Z M 21.875 15.523438 L 21.261719 15.523438 C 20.722656 14.390625 19.566406 13.605469 18.230469 13.605469 C 16.894531 13.605469 15.738281 14.390625 15.195312 15.523438 L 8.804688 15.523438 C 8.261719 14.390625 7.105469 13.605469 5.769531 13.605469 C 4.433594 13.605469 3.277344 14.390625 2.738281 15.523438 L 2.125 15.523438 C 1.515625 15.523438 1.019531 15.027344 1.019531 14.417969 C 1.019531 13.808594 1.515625 13.316406 2.125 13.316406 L 21.875 13.316406 C 22.484375 13.316406 22.980469 13.808594 22.980469 14.417969 C 22.980469 15.027344 22.484375 15.523438 21.875 15.523438 Z M 21.875 15.523438"/>
</svg>

<svg xmlns="http://www.w3.org/2000/svg" width="32" height="32" viewBox="0 0 24 24">
    <path d="M22.652 12.441c-.015-2.32-1.777-4.207-3.941-4.207h-1.305l-3.074-4.558-.848.574 2.688 3.984h-9.3l.753-1.277-.879-.52-1.062 1.797h-.395c-2.164 0-3.926 1.887-3.941 4.207A2.13 2.13 0 0 0 0 14.418c0 1.172.953 2.125 2.125 2.125h.313a3.364 3.364 0 0 0 3.332 3.781 3.364 3.364 0 0 0 3.332-3.781h5.796a3.364 3.364 0 0 0 3.332 3.781 3.364 3.364 0 0 0 3.332-3.781h.313A2.127 2.127 0 0 0 24 14.418a2.13 2.13 0 0 0-1.348-1.977zM5.29 9.258h13.422c.836 0 1.586.387 2.121 1.008h-2.18v1.02h2.774c.113.316.183.652.203 1.007H2.37c.086-1.691 1.363-3.035 2.918-3.035zM5.77 19.3a2.337 2.337 0 0 1-2.335-2.336 2.337 2.337 0 0 1 2.336-2.336 2.337 2.337 0 0 1 2.335 2.336A2.337 2.337 0 0 1 5.77 19.3zm12.461 0a2.34 2.34 0 0 1-2.34-2.336 2.337 2.337 0 1 1 4.676 0A2.337 2.337 0 0 1 18.23 19.3zm3.645-3.778h-.613a3.36 3.36 0 0 0-3.032-1.918 3.37 3.37 0 0 0-3.035 1.918h-6.39a3.37 3.37 0 0 0-3.035-1.918 3.36 3.36 0 0 0-3.032 1.918h-.613a1.104 1.104 0 0 1 0-2.207h19.75a1.104 1.104 0 1 1 0 2.207zm0 0"/>
</svg>
